X: 4
T: Hundred Pipers
R: jig
M: 6/8
L: 1/8
K: Gmaj
|: G/A |B2 D D>ED | E2 G G2 e | d2 B B>AG | A2 A A>Bc |
B2 D D>ED | E2 G G2 e | d2 B ABA | G3 G3/ :|
|: B/c |d2 d d>Bd | e2 g g2 e | d2 B B>AG | A2 A ABc |
d2 d d>ef | g2 g g>fe | d2 B ABA | G3 G3/ :|


Tune 1232	Setting 1232

